X:1
T:Title
%%score [ ( 1 2 ) ( 3 4 ) ]
L:1/8
Q:1/4=80
M:4/4
K:Bb
V:1 treble-8 nm="Tenor I/II"
V:2 treble-8 
V:3 bass nm="Bass I/II"
V:4 bass 
V:1
"^Andante moderato" BB | A3 e feee | ^c4 d2 BB | A3 e feee | ^c4 d3 d | dd^cc =cddd | %6
w: Dear Old|Girl, the rob- in sings a-|bove you, Dear Old|Girl, it speaks of how I|love you, The|blind- ing tears are fall- ing, As I|
 ee=ee !fermata!f2 df | =eee_d =d!fermata!fee | _ee!fermata!e_d !fermata!=d2 |] %9
w: think of my lost pearl, And my|brok- en heart is call- ing, Call- ing|for you, Dear Old Girl.|
V:2
 F=E | _E3 F dcAF | G4 F2 F=E | _E3 F dcAF | G4 F3 F | BBBB d!breath!AAA | GGGG !fermata!B2 FF | %7
 _GGGB B!fermata!FBB | BG!fermata!cB !fermata!B2 |] %9
V:3
 F,G, | F,3 A, A,A,F,A, | B,4 B,2 F,G, | F,3 A, A,A,F,A, | B,4 B,3 A, | G,G,G,G, ^F,F,CC | %6
 B,B,B,B, !fermata!F,2 B,B, | B,B,B,_G, F,!fermata!B,G,G, | %8
 =G,B, (B,/<!fermata!A,/)_G, !fermata!F,2 |] %9
V:4
 D,_D, | C,3 C, F,F,C,C, | =E,4 B,,2 D,_D, | C,3 C, F,F,C,C, | =E,4 B,,3 D, | %5
 G,,G,,E,E, D,!breath!D,D,D, | C,C,^C,C, !fermata!D,2 B,,D, | ^C,C,C,=E, F,!fermata!D,_D,D, | %8
 C,C, _G,/<!fermata!F,/=E, !fermata!B,,2 |] %9

